X: 32651
T: Plough And The Stars, The
R: slide
M: 12/8
K: Amajor
|:A3 AGE D2E G2E|A2B c2d e3 f2=g|
a2b =g2f =g2d B2d|1 eB2 d2B A2B =c2B:|2 eB2 d2B A3 ABd||
e2=c d2B =c2A B=G2|A2=c BA2 B=G2 dB2|
e2=c d2B =c2A =GA2|B=G2 d2B A3 ABd|
e2=c d2B =c2A B=G2|A2B c2d e3 f2=g|
a2b =g2f =g2d B2d|eB2 d2B A2B =c2B||

